!!!!SEGMENT: pl-kk--kk-i-58--004_anonim--missa-benedictus.krn
!!!id: 17xx:2243
!!!COM: Anonim
!!!COM-rism: pe30004985
!!!CDT:
!!!CNT:
!!!OTL: Missa – Benedictus
!!!PDT:
!!!SMS-siglum: PL-Kk
!!!SMS-shelfmark: Kk.I.58
!!!NIFC-rismID: 1001156758
!!!URL-scan: http://repozytorium.nifc.pl/skany/pl-kk-nut--i-58
!!!ONB-nifc: UWAGA: części Mszy: 1. Kyrie, 2. Et in terra, 3. Sanctus, 4. Benedictus, 5. Agnus Dei.
!!!SMS-variant: Baſso. PL-Kk KK.I.58:0020
!!!SMS-altvar: Baſso. PL-Kk KK.I.58:0026
**kern	**text	**kern	**text	**kern	**text	**kern	**text
*part4	*part4	*part3	*part3	*part2	*part2	*part1	*part1
*staff4	*staff4	*staff3	*staff3	*staff2	*staff2	*staff1	*staff1
*I"Baſso.	*	*I"Tenore	*	*I"Alto.	*	*I"Canto.	*
*I'B	*	*I'T	*	*I'A	*	*I'S	*
*clefF4	*	*clefC4	*	*clefC3	*	*clefC1	*
*k[b-]	*	*k[b-]	*	*k[b-]	*	*k[b-]	*
*M2/1	*	*M2/1	*	*M2/1	*	*M2/1	*
*met(c)	*	*met(c|)	*	*met(c|)	*	*met(c|)	*
*2\right	*	*2\right	*	*2\right	*	*2\right	*
=1-	=1-	=1-	=1-	=1-	=1-	=1-	=1-
!LO:TX:t=P:problem:przy kluczu bemole [B-, b-]	!	!	!	!	!	!	!
!LO:TX:a:t=P:problem:kreska pseudotaktowa	!	!	!	!	!	!	!
(1F	Be-	1c	Be-	1f	Be-	1a	.
!LO:TX:t=P:problem:2\right:global	!	!	!	!	!	!	!
2G\)	.	1Bn	-ne-	1d	-ne-	1g	.
2F\	-ne-	.	.	.	.	.	.
=2-	=2-	=2-	=2-	=2-	=2-	=2-	=2-
1E	-di-	1c	-di-	1e	-di-	2g/	.
.	.	.	.	.	.	2g/	.
!	!	!	!	!	!	!	!
!	!	!	!	!	!	!LO:TX:a:t=P:problem:kreska pseudotaktowa	!
2C/	-ctus	2c\	-ctus	2e,\	-ctus	1g	.
!LO:TX:a:t=P:problem:kreska pseudotaktowa	!	!LO:TX:a:t=P:problem:kreska pseudotaktowa	!	!LO:TX:a:t=P:problem:kreska pseudotaktowa	!	!	!
2C/	qui	2c\	q(ui)	2e\	qui	.	.
=3	=3-	=3	=3-	=3	=3-	=3	=3-
1F	ve-	1c	ve-	1f	ve-	1a	.
!	!	!	!	!	!	!	!
2F\	-nit	2c\	-nit	2f\	-nit	2a\	.
2F\	in	2c\	in	2f\	in	2a\	.
=4-	=4-	=4-	=4-	=4-	=4-	=4-	=4-
2D/	no-	2c\	No-	2f\	No-	2a\	.
4D/	-mi-	4c\	-mi-	4f\	-mi-	4a\	.
!LO:TX:a:t=P:problem:kreska pseudotaktowa	!	!	!	!	!	!LO:TX:a:t=P:problem:kreska pseudotaktowa	!
4D/	-ne	4c\	-ne	4f\	-ne	4a\	.
2.G\	Do-	2.Bn\	Do-	2.d\	Do-	2.g/	Do-
!	!	!LO:TX:a:t=P:problem:kreska pseudotaktowa	!	!LO:TX:a:t=P:problem:kreska pseudotaktowa	!	!	!
4G\	-mi-	4B\	-mi-	4d\	-mi-	4g/	-mi-
=5-	=5-	=5	=5-	=5	=5-	=5-	=5-
!	!	!LO:SIC:v:s=1Bn	!	!	!	!LO:TX:a:t=P:problem:kreska pseudotaktowa	!
(2G\	-ni	1B-,	-ni	1d,	-ni	1g	-ni
2F\)	.	.	.	.	.	.	.
2E\	Be-	1c	Be-	[1e	Be-	2g/	Be-
2E\	-ne-	.	.	.	.	2g/	-ne-
=6-	=6-	=6-	=6-	=6-	=6-	=6-	=6-
(2E\	-di-	(2c\	-ne-	2e\]	.	2g/	-di-
!LO:TX:a:t=P:problem:kreska pseudotaktowa	!	!	!	!LO:SIC:v:custos:e	!	!	!
2G\)	.	2Bn\)	.	2d\	-ne-	4g/	-ctus
.	.	.	.	.	.	4g/	q(ui)
1E	-ctus	1c	-di-	1e	-di-	1g	ve-
=7-	=7-	=7-	=7-	=7-	=7-	=7-	=7-
1C	Be-	2c\	-ctus	1e	-ctus	2g/	-nit
.	.	2c\	q(ui)	.	.	2g/	in
(>2E\	-ne-	2c\	ve-	1e	qui	2.g/	No-
2C/)	.	4c\	-nit	.	.	.	.
!	!	!LO:TX:a:t=P:problem:kreska pseudotaktowa	!	!	!	!	!
.	.	4c\	in	.	.	4g/	-mi-
=8-	=8-	=8	=8-	=8-	=8-	=8-	=8-
2G\	-di-	2Bn\	No-	(2d\	ve-	1g	-ne
2C/	-ctus	4c\	-mi-	2e\)	.	.	.
.	.	4c\	-ne	.	.	.	.
2G\	Qui	2.c\	Do-	1d	.	2.g/	Do-
2G\	ve-	.	.	.	.	.	.
.	.	4Bn\	-mi-	.	.	4g/	-mi-
=9-	=9-	=9-	=9-	=9-	=9-	=9-	=9-
!LO:TX:a:t=P:problem:kreska pseudotaktowa	!	!LO:TX:a:t=P:problem:kreska pseudotaktowa	!	!	!	!LO:TX:a:t=P:problem:kreska pseudotaktowa	!
1C	-nit	1c	-ni	1e	-nit	1g	-ni
!LO:TX:a:t=3	!	!	!	!LO:TX:a:t=1.	!	!	!
!	!	!	!	!LO:TX:a:t=P:problem:kreska pseudotaktowa	!	!	!
0r	.	0r	.	1r	.	2.cc\	.
.	.	.	.	.	.	4cc\	.
=10-	=10-	=10-	=10-	=10	=10-	=10-	=10-
.	.	.	.	2.g\	Be-	2bn\	.
.	.	.	.	.	.	4b\	.
.	.	.	.	4f\	-ne-	4b\	.
1r	.	2.c\	Be-	2e\	-di-	2cc\	.
!	!	!	!	!	!	!LO:TX:a:t=P:problem:kreska pseudotaktowa	!
.	.	.	.	4e\	-ctus	2cc\	.
.	.	4c\	-ne-	4e\	qui	.	.
=11-	=11-	=11-	=11-	=11-	=11-	=11	=11-
2.G\	Be-	2Bn\	-di-	2d\	ve-	2r	.
!	!	!	!	!LO:TX:a:t=P:problem:kreska pseudotaktowa	!	!	!
.	.	4B\	-ct(us)	2d\	-nit	2g/	in
4F\	-ne-	4B\	qui	.	.	.	.
2E\	-di-	2c\	ve-	2r	.	2g/	No-
!	!	!LO:TX:a:t=P:problem:kreska pseudotaktowa	!	!	!	!	!
4E\	-ctus	2c\	-nit	2e\	in	4g/	-mi-
!	!	!	!	!	!	!LO:TX:a:t=P:problem:kreska pseudotaktowa	!
4E\	Qui-	.	.	.	.	4g/	-ne
=12-	=12-	=12	=12-	=12-	=12-	=12	=12-
2C/	-ve-	2r	.	2e\	No-	2.g/	Do-
!LO:TX:a:t=P:problem:kreska pseudotaktowa	!	!	!	!	!	!	!
2C/	-nit	2c\	in	4e\	-mi-	.	.
.	.	.	.	4e\	-ne	4g/	-mi-
2r	.	2c\	No-	2.e\	Do-	2g/	-ni
2C/	in	4c\	-mi-	.	.	4g/	Be-
!	!	!LO:TX:a:t=P:problem:kreska pseudotaktowa	!	!LO:TX:a:t=P:problem:kreska pseudotaktowa	!	!	!
.	.	4c\	-ne	4e\	-mi-	4g/	-ne-
=13-	=13-	=13	=13-	=13	=13-	=13-	=13-
2F\	No-	2.c\	Do-	2f\	-ni	2a\	-di-
4F\	-mi-	.	.	4f\	Do-	2a\	-ctus
4F\	-ne	4c\	-mi-	4f\	-mi-	.	.
!	!	!LO:TX:a:t=P:problem:kreska pseudotaktowa	!	!LO:TX:a:t=P:problem:kreska pseudotaktowa	!	!	!
2.D/	Do-	1d	-ni	1f	-ni	2r	.
.	.	.	.	.	.	2a\	qui
4D/	-mi-	.	.	.	.	.	.
=14-	=14-	=14	=14-	=14	=14-	=14-	=14-
2D/	-ni	2r	.	2r	.	1f	ve-
2D/	in	2d\	qui	2f\	in	.	.
!	!	!	!	!	!	!LO:TX:a:t=P:problem:kreska pseudotaktowa	!
2.BB-/	No-	2d\	ve-	2.f\	No-	1b-	-nit
!	!	!LO:TX:a:t=P:problem:kreska pseudotaktowa	!	!	!	!	!
.	.	2d\	-nit	.	.	.	.
4BB-/	-mi-	.	.	4f\	-mi-	.	.
=15-	=15-	=15	=15-	=15-	=15-	=15	=15-
!	!	!	!	!LO:TX:a:t=P:problem:kreska pseudotaktowa	!	!	!
1C	-ne	2r	.	1e	-ne	2r	.
.	.	2c\	in	.	.	2b-\	in
2.F\	No-	4c\	No-	2r	.	2.a\	No-
.	.	4c\	-mi-	.	.	.	.
!LO:TX:a:t=P:problem:kreska pseudotaktowa	!	!LO:TX:a:t=P:problem:kreska pseudotaktowa	!	!	!	!	!
.	.	2c\	-ne	2f\	/in	.	.
4F\	-mi-	.	.	.	.	4a\	-mi-
=16	=16-	=16	=16-	=16-	=16-	=16-	=16-
1BB-	-ne	(2d\	Do-	2.f\	No-	2a\	-ne
!	!	!	!	!	!	!LO:TX:a:t=P:problem:kreska pseudotaktowa	!
.	.	2c\)	.	.	.	2g/	.
.	.	.	.	4e\	-mi-	.	.
!	!	!	!	!LO:TX:a:t=P:problem:kreska pseudotaktowa	!	!	!
1BB-	Do-	2.B-\	.	1d	-ne/	2.f/	Do-
.	.	4B-\	-mi-	.	.	8g/L	.
.	.	.	.	.	.	8f/J	.
=17-	=17-	=17-	=17-	=17	=17-	=17-	=17-
2C/	.	2G,/	-ni	1c	Do-	2e/	.
2F\	.	2A/	Do-	.	.	1f	.
2.C/	.	2.G/	.	2.c/	-mi-	.	.
.	.	.	.	.	.	2e/	-mi-
4C/	-mi-	4G/	-mi-	4c/	.	.	.
=18-	=18-	=18-	=18-	=18-	=18-	=18-	=18-
!LO:TX:a:t=P:problem:kreska pseudotaktowa	!	!LO:TX:a:t=P:problem:kreska pseudotaktowa	!	!LO:TX:a:t=P:problem:kreska pseudotaktowa	!	!LO:TX:a:t=P:problem:kreska pseudotaktowa	!
1F	-ni	1A	-ni	1c	-ni	1f	-ni
!	!	!LO:TX:a:t=1.	!	!	!	!	!
2r	.	1r	.	0r	.	0r	.
2F\	Qui	.	.	.	.	.	.
=19-	=19-	=19-	=19-	=19-	=19-	=19-	=19-
4F\	ve-	2r	.	.	.	.	.
4E\	.	.	.	.	.	.	.
4D/	.	2c\	Qui	.	.	.	.
!LO:TX:a:t=P:problem:kreska pseudotaktowa	!	!	!	!	!	!	!
4C/	.	.	.	.	.	.	.
2D/	-nit	4c\	ve-	2r	.	1r	.
.	.	4B-\	.	.	.	.	.
2D/	in	4A/	.	2f\	qui	.	.
.	.	4G/	.	.	.	.	.
=20-	=20-	=20-	=20-	=20-	=20-	=20-	=20-
2.F\	No-	2A/	.	4f\	ve-	2r	.
.	.	.	.	4e\	.	.	.
!	!	!LO:TX:a:t=P:problem:kreska pseudotaktowa	!	!	!	!	!
!	!	!LO:TX:t=P:problem:skreślony fragment	!	!	!	!	!
.	.	2A/	-nit	4d\	.	2cc\	Qui
4F\	-mi-	.	.	4c\	.	.	.
1G	-ne	2r	.	2d\	-nit	4cc\	ve-
.	.	.	.	.	.	4b-\	.
.	.	2B-\	in	2d\	in	4a\	.
!	!	!	!	!	!	!LO:TX:a:t=P:problem:kreska pseudotaktowa	!
.	.	.	.	.	.	4g\	.
=21-	=21-	=21-	=21-	=21-	=21-	=21	=21-
2.F\	Do-	2.c\	No-	2.f\	No-	2a\	-nit
.	.	.	.	.	.	2a\	in
4E\	-mi-	4c\	-mi-	4f\	-mi-	.	.
2D/	-nie	2c\	-ne	(2f\	-ne	2a\	No-
!	!	!LO:TX:a:t=P:problem:kreska pseudotaktowa	!	!LO:TX:a:t=P:problem:kreska pseudotaktowa	!	!	!
2G\	.	2B-\	.	2d\)	.	4g/	-mi-
!	!	!	!	!	!	!LO:TX:a:t=P:problem:kreska pseudotaktowa	!
.	.	.	.	.	.	4g/	-ne
=22-	=22-	=22	=22-	=22	=22-	=22-	=22-
2C/	Do-	2B-\	Do-	2e\	Do-	2g/	Do-
2F\	.	4A/	.	1f	.	2a\	.
.	.	4B-/	.	.	.	.	.
2.C/	.	2.c\	.	.	.	2.g\	.
.	.	.	.	2e\	-mi-	.	.
4C/	-mi-	4c;\	-mi-	.	.	4g\	-mi-
=23-	=23-	=23-	=23-	=23-	=23-	=23-	=23-
!	!	!LO:TX:b:t=// // Osanna ut supra // // //	!	!LO:TX:a:t=Osanna ut supra //	!	!LO:TX:a:t=// Osanna ut Supra //	!
00F;\	-ni.	00c;\	-ni	00f;\	-ni	00a;\	-ni.
==	==	==	==	==	==	==	==
*-	*-	*-	*-	*-	*-	*-	*-
!!!system-decoration: [(s1,s2,s3,s4)]
!!!RDF**kern: > = above
!!!RDF**kern: < = below
!!!ENC: Kamil Watkowski
!!!END: 2021-08-03
